X:314
T: Das letzte Stuendlein
N: A0659A
O: Europa, Mitteleuropa, Deutschland
N: Gsgb 1569
R: Romanze, Ballade, Lied, religioeses Lied
M: 4/2
L: 1/4
K: F
F4C2D2 | E2F2G2A2 | F4A4 | c2c2A2c2 | B4A4 |
A4c2A2 | G2F2G2A2 | F4A4 | c2c2A2c2 | B4A4 |
A4c2A2 | G2F2G2A2 | F4G4 | A2A2D2E2 | F2D2C4 |
C4F2G2 | A3GB2A2 | G4F4

@@@ Tune index: 627
